app/style/icons/tutorials/lifecycle/lifecycle-slide6-3.svg

<svg version="1.1" viewBox="0 0 1160 800" xmlns="http://www.w3.org/2000/svg">
 <path d="M1160 0H0V800H1160V0Z" fill="#fff"/>
 <path d="m1100.8 45.21h-678.93c-7.66 0-13.87 6.2098-13.87 13.87v681.85c0 7.66 6.21 13.87 13.87 13.87h678.93c7.66 0 13.87-6.21 13.87-13.87v-681.85c0-7.6602-6.21-13.87-13.87-13.87z" fill="#091440"/>
 <path d="m780.09 171.8v478.78h-38.47c-100.93 0-182.75-107.18-182.75-239.39s81.82-239.39 182.75-239.39h38.47z" fill="#FFC84E"/>
 <path d="m781.16 650.58c100.93 0 182.75-107.18 182.75-239.39 0-132.21-81.82-239.39-182.75-239.39s-182.75 107.18-182.75 239.39c0 132.21 81.82 239.39 182.75 239.39z" fill="#FFC84E"/>
 <path d="m781.16 609.97c78.502 0 142.14-88.997 142.14-198.78s-63.638-198.78-142.14-198.78c-78.501 0-142.14 88.997-142.14 198.78s63.638 198.78 142.14 198.78z" fill="#fff"/>
 <path d="m381.4 228.17h-329.41c-3.6782 0-6.66 2.982-6.66 6.66v324.25c0 3.678 2.9818 6.66 6.66 6.66h329.41c3.678 0 6.66-2.982 6.66-6.66v-324.25c0-3.678-2.982-6.66-6.66-6.66z" fill="#FFC84E"/>
 <path d="m231.35 454.65 77.58-13.65-4.82-27.33c-8.204 1.334-16.603-0.616-23.38-5.427s-11.388-12.098-12.833-20.282c-1.446-8.185 0.389-16.61 5.107-23.452 4.719-6.842 11.941-11.552 20.106-13.109l-4.82-27.32-56.77 10-0.17 120.57z" fill="#fff"/>
 <path d="m202 339.27-77.56 13.67 4.82 27.33c8.204-1.334 16.603 0.615 23.38 5.427 6.777 4.811 11.388 12.097 12.833 20.282 1.446 8.185-0.389 16.61-5.107 23.452-4.719 6.842-11.941 11.551-20.106 13.109l4.82 27.32 56.75-10 0.17-120.59z" fill="#fff"/>
 <g fill="#091440">
  <path d="m202 364.66c-6.183 2.821-11.426 7.359-15.106 13.072-3.679 5.714-5.641 12.365-5.652 19.161-0.01 6.796 1.931 13.453 5.593 19.178s8.891 10.279 15.065 13.119l0.1-64.53z"/>
  <path d="m251.63 390.79c-0.994-5.653-3.346-10.981-6.854-15.524s-8.068-8.166-13.286-10.556l-0.1 64.55c7.161-3.261 13.035-8.81 16.699-15.774 3.663-6.963 4.909-14.947 3.541-22.696z"/>
  <path d="m211.99 456.5-0.056 35.69 9.49 0.014 0.056-35.69-9.49-0.014z"/>
  <path d="m212 402.93-0.056 35.69 9.49 0.015 0.056-35.69-9.49-0.015z"/>
  <path d="m211.99 349.38-0.056 35.69 9.49 0.015 0.056-35.69-9.49-0.015z"/>
  <path d="m212 295.82-0.056 35.69 9.49 0.015 0.056-35.69-9.49-0.015z"/>
 </g>
 <polygon transform="matrix(2.7518 0 0 2.7518 696.71 312.12)" points="35.56 33.62 33.57 36 35.56 38.38 61 68.56 63.34 66.6 37.56 36 63.34 5.4 61 3.44" fill="#c1272d"/>
 <polygon transform="matrix(2.7518 0 0 2.7518 696.71 312.12)" points="58.99 70.04 30.3 36 58.99 1.96 56.65 0 28.31 33.62 2.34 2.67 0 4.64 26.32 36 0 67.36 2.34 69.33 28.31 38.38 56.65 72" fill="#1a1a1a"/>
</svg>

<svg width="1160" height="800" viewBox="0 0 1160 800" fill="none" xmlns="http://www.w3.org/2000/svg">
<path d="M1160 0H0V800H1160V0Z" fill="white"/>
<path d="M1100.85 45.21H421.92C414.26 45.21 408.05 51.4198 408.05 59.08V740.93C408.05 748.59 414.26 754.8 421.92 754.8H1100.85C1108.51 754.8 1114.72 748.59 1114.72 740.93V59.08C1114.72 51.4198 1108.51 45.21 1100.85 45.21Z" fill="#091440"/>
<path d="M780.09 171.8V650.58H741.62C640.69 650.58 558.87 543.4 558.87 411.19C558.87 278.98 640.69 171.8 741.62 171.8H780.09Z" fill="#FFC84E"/>
<path d="M781.16 650.58C882.09 650.58 963.91 543.401 963.91 411.19C963.91 278.978 882.09 171.8 781.16 171.8C680.23 171.8 598.41 278.978 598.41 411.19C598.41 543.401 680.23 650.58 781.16 650.58Z" fill="#FFC84E"/>
<path d="M781.159 609.97C859.661 609.97 923.299 520.973 923.299 411.19C923.299 301.407 859.661 212.41 781.159 212.41C702.658 212.41 639.02 301.407 639.02 411.19C639.02 520.973 702.658 609.97 781.159 609.97Z" fill="white"/>
<path d="M750.19 366.47L720.281 321.42H752.49L800.22 393.34H768C764.806 393.373 761.686 394.309 759 396.04C755.933 398.03 753.325 400.652 751.35 403.73C749.048 407.279 747.323 411.171 746.24 415.26C743.854 424.166 743.854 433.544 746.24 442.45C747.321 446.546 749.046 450.445 751.35 454C753.324 457.081 755.932 459.706 759 461.7C761.687 463.428 764.806 464.363 768 464.4H780.081L803.66 499.91H768C761.513 499.875 755.17 497.995 749.711 494.49C743.489 490.461 738.201 485.149 734.201 478.91C729.54 471.719 726.05 463.834 723.86 455.55C721.44 446.568 720.236 437.302 720.281 428C719.881 414.15 722.62 400.5 728.06 389.32C733.5 378.14 741.3 370.08 750.19 366.48V366.47Z" fill="#091440"/>
<path d="M832.69 455.86L862.35 501H830.41L783.07 429H815C818.196 428.976 821.319 428.039 824 426.3C827.048 424.297 829.635 421.669 831.59 418.59C833.865 415.016 835.559 411.104 836.61 407C838.984 398.082 838.984 388.699 836.61 379.78C835.54 375.695 833.832 371.804 831.55 368.25C829.598 365.17 827.01 362.541 823.96 360.54C821.283 358.792 818.158 357.855 814.96 357.84H803L779.61 321.4H815C821.441 321.443 827.735 323.328 833.14 326.83C839.319 330.873 844.56 336.192 848.51 342.43C853.14 349.638 856.603 357.532 858.77 365.82C861.176 374.812 862.377 384.083 862.34 393.39C862.68 407.34 859.94 421.06 854.57 432.39C849.2 443.72 841.5 452 832.69 455.86Z" fill="#091440"/>
<path d="M381.4 228.17H51.9901C48.3119 228.17 45.3301 231.152 45.3301 234.83V559.08C45.3301 562.758 48.3119 565.74 51.9901 565.74H381.4C385.078 565.74 388.06 562.758 388.06 559.08V234.83C388.06 231.152 385.078 228.17 381.4 228.17Z" fill="#FFC84E"/>
<path d="M231.351 454.65L308.931 441L304.111 413.67C295.907 415.004 287.508 413.054 280.731 408.243C273.954 403.432 269.343 396.145 267.898 387.961C266.452 379.776 268.287 371.351 273.005 364.509C277.724 357.667 284.946 352.957 293.111 351.4L288.291 324.08L231.521 334.08L231.351 454.65Z" fill="white"/>
<path d="M202 339.271L124.44 352.941L129.26 380.271C137.464 378.937 145.863 380.886 152.64 385.698C159.417 390.509 164.028 397.795 165.473 405.98C166.919 414.165 165.084 422.59 160.366 429.432C155.647 436.274 148.425 440.983 140.26 442.541L145.08 469.861L201.83 459.861L202 339.271Z" fill="white"/>
<path d="M202 364.66C195.817 367.481 190.574 372.019 186.894 377.732C183.215 383.446 181.253 390.097 181.242 396.893C181.232 403.689 183.173 410.346 186.835 416.071C190.497 421.796 195.726 426.35 201.9 429.19L202 364.66Z" fill="#091440"/>
<path d="M251.631 390.79C250.637 385.137 248.285 379.809 244.777 375.266C241.269 370.723 236.709 367.1 231.491 364.71L231.391 429.26C238.552 425.999 244.426 420.45 248.09 413.486C251.753 406.523 252.999 398.539 251.631 390.79V390.79Z" fill="#091440"/>
<path d="M211.988 456.498L211.932 492.188L221.422 492.202L221.478 456.512L211.988 456.498Z" fill="#091440"/>
<path d="M211.997 402.934L211.941 438.624L221.431 438.639L221.487 402.949L211.997 402.934Z" fill="#091440"/>
<path d="M211.988 349.379L211.932 385.069L221.422 385.084L221.478 349.394L211.988 349.379Z" fill="#091440"/>
<path d="M211.998 295.816L211.942 331.506L221.432 331.521L221.488 295.831L211.998 295.816Z" fill="#091440"/>
</svg>
